<?xml version="1.0" encoding="UTF-8"?>
<map version="1.11" tiledversion="1.11.2" orientation="orthogonal" renderorder="right-down" width="16" height="12" tilewidth="40" tileheight="40" infinite="0" nextlayerid="13" nextobjectid="187">
 <editorsettings>
  <export target="storage-arcade.lua" format="lua"/>
 </editorsettings>
 <properties>
  <property name="border" value="green_sloppy"/>
  <property name="name" value="Play Room - Ramb"/>
 </properties>
 <tileset firstgid="1" source="../tilesets/castle.tsx"/>
 <tileset firstgid="41" source="../tilesets/tv_floor/board.tsx"/>
 <tileset firstgid="57" source="../tilesets/arcade-storage.tsx"/>
 <layer id="8" name="back" width="16" height="12">
  <data encoding="csv">
66,66,66,66,66,66,66,66,66,66,66,66,66,66,66,66,
66,66,66,0,0,0,0,0,0,0,0,0,0,66,66,66,
0,0,0,0,0,0,0,0,0,0,0,0,0,0,0,0,
0,0,0,0,0,0,0,0,0,0,0,0,0,0,0,0,
0,0,0,0,0,0,0,0,0,0,0,0,0,0,0,0,
0,0,0,0,0,0,0,0,0,0,0,0,0,0,0,0,
0,0,0,0,0,0,0,0,0,0,0,0,0,0,0,0,
0,0,0,0,0,0,0,0,0,0,0,0,0,0,0,0,
0,0,0,0,0,0,0,0,0,0,0,0,0,0,0,0,
0,0,0,0,0,0,0,0,0,0,0,0,0,0,0,0,
0,0,0,0,0,0,0,0,0,0,0,0,0,0,0,0,
0,0,0,0,0,0,0,0,0,0,0,0,0,0,0,0
</data>
 </layer>
 <layer id="1" name="tiles" width="16" height="12">
  <data encoding="csv">
72,75,76,76,76,76,76,76,76,76,76,76,76,76,2147483723,74,
72,1610612809,74,0,0,0,0,0,0,0,0,0,0,72,2684354633,74,
72,1610612809,74,0,0,0,0,0,0,0,0,0,0,72,2684354633,74,
72,1610612809,74,0,0,0,0,0,0,0,0,0,0,72,2684354633,74,
72,1610612809,74,0,0,0,0,0,0,0,0,0,0,72,2684354633,74,
72,1610612809,74,0,0,0,0,0,0,0,0,0,0,72,2684354633,74,
72,1610612809,74,0,0,0,0,0,0,0,0,0,0,72,2684354633,74,
72,1610612809,74,0,0,0,0,0,0,0,0,0,0,72,2684354633,74,
79,1610612809,81,57,57,71,71,71,57,71,64,57,71,79,2684354633,81,
78,78,78,71,78,71,71,71,78,78,78,78,71,78,78,71,
78,71,78,71,78,71,71,71,71,71,71,78,71,71,78,71,
71,71,71,78,78,78,71,78,78,71,71,71,78,78,78,78
</data>
 </layer>
 <layer id="2" name="decal" width="16" height="12" offsetx="38" offsety="20">
  <data encoding="csv">
0,0,0,0,0,0,0,0,0,0,0,0,0,0,0,0,
0,0,0,0,0,0,0,0,0,0,0,0,0,0,0,0,
0,0,0,0,5,0,0,0,0,0,0,0,0,0,0,0,
0,0,0,0,0,0,0,0,0,0,0,0,0,0,0,0,
0,0,0,0,0,0,0,0,0,0,0,0,0,0,0,0,
0,0,0,0,0,0,0,0,0,0,0,0,0,0,0,0,
0,0,0,0,0,0,0,0,0,0,0,0,0,0,0,0,
0,0,0,0,0,0,0,0,0,0,0,0,0,0,0,0,
0,0,0,0,0,0,0,0,0,0,0,0,0,0,0,0,
0,0,0,0,0,0,0,0,0,0,0,0,0,0,0,0,
0,0,0,0,0,0,0,0,0,0,0,0,0,0,0,0,
0,0,0,0,0,0,0,0,0,0,0,0,0,0,0,0
</data>
 </layer>
 <layer id="10" name="tv" width="16" height="12">
  <data encoding="csv">
0,0,0,0,0,0,0,0,0,0,0,0,0,0,0,0,
0,0,0,0,0,0,0,0,0,0,0,0,0,0,0,0,
0,0,0,68,0,0,0,0,0,0,0,0,70,0,0,0,
0,0,0,68,0,0,0,0,0,0,0,0,70,0,0,0,
0,0,0,68,0,0,0,0,0,0,0,0,70,0,0,0,
0,0,0,68,0,0,0,0,0,0,0,0,70,0,0,0,
0,0,0,68,0,0,0,0,0,0,0,0,70,0,0,0,
0,0,0,75,76,76,76,76,76,76,76,76,77,0,0,0,
0,0,0,0,0,0,0,0,0,0,0,0,0,0,0,0,
0,0,0,0,0,0,0,0,0,0,0,0,0,0,0,0,
0,0,0,0,0,0,0,0,0,0,0,0,0,0,0,0,
0,0,0,0,0,0,0,0,0,0,0,0,0,0,0,0
</data>
 </layer>
 <objectgroup color="#0000ff" id="3" name="collision" opacity="0.5">
  <object id="157" x="-40" y="360" width="40" height="120"/>
  <object id="158" x="0" y="480" width="640" height="40"/>
  <object id="160" x="120" y="296" width="400" height="24"/>
  <object id="173" x="0" y="0" width="40" height="360"/>
  <object id="174" x="80" y="40" width="40" height="320"/>
  <object id="185" x="119" y="80" width="21" height="217"/>
  <object id="186" x="500" y="80" width="21" height="215.5"/>
  <object id="175" x="520" y="40" width="40" height="320"/>
  <object id="176" x="600" y="0" width="40" height="360"/>
  <object id="167" x="290" y="320" width="80" height="40"/>
  <object id="177" x="40" y="-40" width="560" height="40"/>
  <object id="178" x="120" y="40" width="150" height="40"/>
  <object id="179" x="310" y="40" width="210" height="40"/>
 </objectgroup>
 <objectgroup color="#ff00ff" id="9" name="objects">
  <object id="163" name="transition" x="640" y="360" width="40" height="120">
   <properties>
    <property name="map" value="storage-down"/>
    <property name="marker" value="entry3"/>
   </properties>
  </object>
  <object id="165" gid="48" x="280" y="356" width="100" height="34"/>
  <object id="166" name="interactable" x="290" y="320" width="80" height="40">
   <properties>
    <property name="cutscene" value="sword.play"/>
    <property name="map" value="world_abandoned_storage"/>
    <property name="once" type="bool" value="false"/>
    <property name="x" type="int" value="5"/>
    <property name="y" type="int" value="3"/>
   </properties>
  </object>
  <object id="168" name="interactable" x="200" y="280" width="40" height="40">
   <properties>
    <property name="text" value="* (The sign is too high up to read it)"/>
   </properties>
  </object>
  <object id="184" name="detach_board" x="272.25" y="114.25" width="32" height="8">
   <properties>
    <property name="detach" type="bool" value="false"/>
   </properties>
  </object>
 </objectgroup>
 <layer id="12" name="tvtop" width="16" height="12">
  <data encoding="csv">
0,0,0,0,0,0,0,0,0,0,0,0,0,0,0,0,
0,0,0,80,80,80,80,80,80,80,80,80,80,0,0,0,
0,0,0,0,0,0,0,0,0,0,0,0,0,0,0,0,
0,0,0,0,0,0,0,0,0,0,0,0,0,0,0,0,
0,0,0,0,0,0,0,0,0,0,0,0,0,0,0,0,
0,0,0,0,0,0,0,0,0,0,0,0,0,0,0,0,
0,0,0,0,0,0,0,0,0,0,0,0,0,0,0,0,
0,0,0,0,0,0,0,0,0,0,0,0,0,0,0,0,
0,0,0,0,0,0,0,0,0,0,0,0,0,0,0,0,
0,0,0,0,0,0,0,0,0,0,0,0,0,0,0,0,
0,0,0,0,0,0,0,0,0,0,0,0,0,0,0,0,
0,0,0,0,0,0,0,0,0,0,0,0,0,0,0,0
</data>
 </layer>
 <objectgroup color="#7f00ff" id="5" name="markers">
  <object id="162" name="entry" x="600" y="420">
   <point/>
  </object>
  <object id="172" name="spawn" x="330" y="430">
   <point/>
  </object>
 </objectgroup>
</map>
