<?xml version="1.0" encoding="UTF-8"?>
<map version="1.11" tiledversion="1.11.2" orientation="orthogonal" renderorder="right-down" width="50" height="11" tilewidth="40" tileheight="40" infinite="0" nextlayerid="11" nextobjectid="175">
 <editorsettings>
  <export target="storage-down.lua" format="lua"/>
 </editorsettings>
 <properties>
  <property name="border" value="green_sloppy"/>
  <property name="music" value="tv_changingroom"/>
  <property name="name" value="Play Room - Ramb"/>
 </properties>
 <tileset firstgid="1" source="../tilesets/castle.tsx"/>
 <tileset firstgid="41" source="../tilesets/tv_floor/board.tsx"/>
 <layer id="8" name="back" width="50" height="11">
  <data encoding="csv">
11,11,11,11,11,11,11,11,11,11,11,11,11,11,11,11,11,11,11,11,11,11,11,11,11,11,11,11,11,11,11,11,11,11,11,11,11,11,11,11,11,11,11,11,11,11,11,11,11,11,
11,11,11,11,11,11,11,11,11,11,11,11,11,11,11,11,11,11,11,11,11,11,11,11,11,11,11,11,11,11,11,11,11,11,11,11,11,11,11,11,11,11,11,11,11,11,11,11,11,11,
11,11,11,11,11,11,11,11,11,11,11,11,11,11,11,11,11,11,11,11,11,11,11,11,11,11,11,11,11,11,11,11,11,11,11,11,11,11,11,11,11,11,11,11,11,11,11,11,11,11,
11,11,11,11,11,11,11,11,11,11,11,11,11,11,11,11,11,11,11,11,11,11,11,11,11,11,11,11,11,11,11,11,11,11,11,11,11,11,11,11,11,11,11,11,11,11,11,11,11,11,
11,11,11,11,11,11,11,11,11,11,11,11,11,11,11,11,11,11,11,11,11,11,11,11,11,11,11,11,11,11,11,11,11,11,11,11,11,11,11,11,11,11,11,11,11,11,11,11,11,11,
11,11,11,11,11,11,11,11,11,11,11,11,11,11,11,11,11,11,11,11,11,11,11,11,11,11,11,11,11,11,11,11,11,11,11,11,11,11,11,11,11,11,11,11,11,11,11,11,11,11,
11,11,11,11,11,11,11,11,11,11,11,11,11,11,11,11,11,11,11,11,11,11,11,11,11,11,11,11,11,11,11,11,11,11,11,11,11,11,11,11,11,11,11,11,11,11,11,11,11,11,
11,11,11,11,11,11,11,11,11,11,11,11,11,11,11,11,11,11,11,11,11,11,11,11,11,11,11,11,11,11,11,11,11,11,11,11,11,11,11,11,11,11,11,11,11,11,11,11,11,11,
11,11,11,11,11,11,11,11,11,11,11,11,11,11,11,11,11,11,11,11,11,11,11,11,11,11,11,11,11,11,11,11,11,11,11,11,11,11,11,11,11,11,11,11,11,11,11,11,11,11,
11,11,11,11,11,11,11,11,11,11,11,11,11,11,11,11,11,11,11,11,11,11,11,11,11,11,11,11,11,11,11,11,11,11,11,11,11,11,11,11,11,11,11,11,11,11,11,11,11,11,
11,11,11,11,11,11,11,11,11,11,11,11,11,11,11,11,11,11,11,11,11,11,11,11,11,11,11,11,11,11,11,11,11,11,11,11,11,11,11,11,11,11,11,11,11,11,11,11,11,11
</data>
 </layer>
 <objectgroup id="7" name="objects_bg"/>
 <layer id="1" name="tiles" width="50" height="11">
  <data encoding="csv">
0,0,0,0,0,0,0,0,0,0,6,6,10,6,6,0,0,0,0,39,37,9,13,38,38,9,13,38,38,38,39,37,0,0,0,6,6,6,6,6,0,0,0,0,0,0,0,0,0,0,
9,38,9,38,38,38,9,38,38,38,6,6,6,6,6,37,38,2147483661,39,34,34,34,34,34,34,34,34,34,34,34,34,24,37,38,39,17,6,6,6,6,0,0,0,0,0,0,0,0,0,0,
23,23,23,2147483667,23,23,23,2147483667,23,2147483667,2147483665,6,17,6,6,22,2,3,2147483670,34,34,34,34,34,34,34,34,34,34,34,34,34,22,23,2147483670,17,6,6,6,6,0,0,0,0,0,0,0,0,0,0,
3221225475,23,23,23,3221225490,3221225475,23,23,3221225490,3221225475,6,6,6,2147483665,6,22,18,23,2147483670,35,35,35,35,35,35,35,35,35,35,35,35,35,22,23,2147483670,6,6,6,6,6,0,0,0,0,0,0,0,0,0,0,
27,27,27,27,27,27,27,27,27,27,6,6,6,6,6,26,27,27,2147483674,10,17,6,6,17,6,6,6,6,1073741841,6,17,6,26,27,2147483674,6,6,6,6,6,0,0,0,0,0,0,0,0,0,0,
0,0,0,0,0,0,0,0,3221225489,3221225489,6,6,6,6,6,6,2147483665,6,6,6,6,17,6,6,6,6,6,6,6,6,6,6,6,6,6,2147483665,6,6,3221225489,6,0,0,0,0,0,0,0,0,0,0,
0,0,0,0,0,0,0,0,2684354572,6,6,6,6,6,2147483665,6,2147483658,6,6,6,2147483665,6,6,6,6,3221225489,6,6,6,6,6,2147483665,6,6,6,6,6,6,6,12,0,0,0,0,0,0,0,0,0,0,
0,0,0,0,0,0,0,0,0,0,0,0,0,0,0,0,0,0,0,2147483660,6,6,6,6,6,6,14,6,3221225489,6,6,12,0,0,0,0,0,0,0,0,0,0,0,0,0,0,0,0,0,0,
0,0,0,0,0,0,0,0,0,0,0,0,0,0,0,0,0,0,0,0,0,0,0,0,0,0,0,0,0,0,0,0,0,0,0,0,0,0,0,0,0,0,0,0,0,0,0,0,0,0,
0,0,0,0,0,0,0,0,0,0,0,0,0,0,0,0,0,0,0,0,0,0,0,0,0,0,0,0,0,0,0,0,0,0,0,0,0,0,0,0,0,0,0,0,0,0,0,0,0,0,
0,0,0,0,0,0,0,0,0,0,0,0,0,0,0,0,0,0,0,0,0,0,0,0,0,0,0,0,0,0,0,0,0,0,0,0,0,0,0,0,0,0,0,0,0,0,0,0,0,0
</data>
 </layer>
 <layer id="2" name="decal" width="50" height="11" offsetx="38" offsety="20">
  <data encoding="csv">
0,0,0,0,0,0,0,0,0,0,0,0,0,0,0,0,0,0,0,0,0,0,0,0,0,0,0,0,0,0,0,0,0,0,0,0,0,0,0,0,0,0,0,0,0,0,0,0,0,0,
0,0,0,0,0,0,0,0,0,0,0,0,0,0,0,0,0,0,0,0,0,0,0,0,0,0,0,0,0,0,0,0,0,0,0,0,0,0,0,0,0,0,0,0,0,0,0,0,0,0,
0,0,0,0,0,0,0,0,0,0,0,0,0,0,0,0,0,0,0,0,0,0,0,0,0,0,0,0,0,0,0,0,0,0,0,0,0,0,0,0,0,0,0,0,0,0,0,0,0,0,
0,0,0,0,0,0,0,0,0,0,0,0,0,0,0,0,0,0,0,0,0,0,0,0,0,0,0,0,0,0,0,0,0,0,0,0,0,0,0,0,0,0,0,0,0,0,0,0,0,0,
0,0,0,0,0,0,0,0,0,0,0,0,0,0,0,0,0,0,0,0,0,0,0,0,0,0,0,0,0,0,0,0,0,0,0,0,0,0,0,0,0,0,0,0,0,0,0,0,0,0,
0,0,0,0,0,0,0,0,0,0,0,0,0,0,0,0,0,0,0,0,0,0,0,0,0,0,0,0,0,0,0,0,0,0,0,0,0,0,0,0,0,0,0,0,0,0,0,0,0,0,
0,0,0,0,0,0,0,0,0,0,0,0,0,0,0,0,0,0,0,0,0,0,0,0,0,0,0,0,0,0,0,0,0,0,0,0,0,0,0,0,0,0,0,0,0,0,0,0,0,0,
0,0,0,0,0,0,0,0,0,0,0,0,0,0,0,0,0,0,0,0,0,0,0,0,0,0,0,0,0,0,0,0,0,0,0,0,0,0,0,0,0,0,0,0,0,0,0,0,0,0,
0,0,0,0,0,0,0,0,0,0,0,0,0,0,0,0,0,0,0,0,0,0,0,0,0,0,0,0,0,0,0,0,0,0,0,0,0,0,0,0,0,0,0,0,0,0,0,0,0,0,
0,0,0,0,0,0,0,0,0,0,0,0,0,0,0,0,0,0,0,0,0,0,0,0,0,0,0,0,0,0,0,0,0,0,0,0,0,0,0,0,0,0,0,0,0,0,0,0,0,0,
0,0,0,0,0,0,0,0,0,0,0,0,0,0,0,0,0,0,0,0,0,0,0,0,0,0,0,0,0,0,0,0,0,0,0,0,0,0,0,0,0,0,0,0,0,0,0,0,0,0
</data>
 </layer>
 <objectgroup color="#0000ff" id="3" name="collision" opacity="0.5">
  <object id="138" x="800" y="320" width="440" height="40"/>
  <object id="139" x="1280" y="280" width="280" height="40"/>
  <object id="140" x="0" y="280" width="760" height="40"/>
  <object id="142" x="1600" y="200" width="40" height="40"/>
  <object id="143" x="1280" y="160" width="120" height="40"/>
  <object id="144" x="760" y="120" width="520" height="40"/>
  <object id="145" x="600" y="160" width="160" height="40"/>
  <object id="146" x="0" y="160" width="400" height="40"/>
  <object id="147" x="360" y="0" width="40" height="160"/>
  <object id="148" x="600" y="0" width="40" height="160"/>
  <object id="149" x="1360" y="0" width="40" height="160"/>
  <object id="150" x="1600" y="0" width="40" height="200"/>
  <object id="152" x="1600" y="240">
   <polygon points="0,0 -40,40 0,40"/>
  </object>
  <object id="157" x="1240" y="320">
   <polygon points="0,0 40,-40 40,0"/>
  </object>
  <object id="158" x="760" y="280">
   <polygon points="0,0 40,40 0,40"/>
  </object>
  <object id="162" x="930" y="160" width="200" height="40"/>
 </objectgroup>
 <objectgroup color="#ff00ff" id="10" name="objects">
  <object id="153" gid="2147483704" x="920" y="200" width="216" height="148"/>
  <object id="154" name="transition" x="1400" y="-40" width="200" height="40">
   <properties>
    <property name="map" value="storage"/>
    <property name="marker" value="entry3"/>
   </properties>
  </object>
  <object id="155" name="transition" x="400" y="-40" width="200" height="40">
   <properties>
    <property name="map" value="storage-left"/>
    <property name="marker" value="entry2"/>
   </properties>
  </object>
  <object id="161" name="transition" x="-40" y="200" width="40" height="80">
   <properties>
    <property name="map" value="storage-arcade"/>
    <property name="marker" value="entry"/>
   </properties>
  </object>
  <object id="169" name="controllersbox" x="840" y="180">
   <properties>
    <property name="item" value="apple_core"/>
    <property name="money" type="int" value="250"/>
   </properties>
   <point/>
  </object>
  <object id="170" name="controllersbox" x="1200" y="180">
   <properties>
    <property name="money" type="int" value="250"/>
   </properties>
   <point/>
  </object>
  <object id="174" name="pushblock_board" x="480" y="240" width="40" height="40"/>
 </objectgroup>
 <objectgroup color="#7f00ff" id="5" name="markers">
  <object id="130" name="entry" x="1500" y="40">
   <point/>
  </object>
  <object id="131" name="entry2" x="500" y="40">
   <point/>
  </object>
  <object id="159" name="spawn" x="1040" y="260">
   <point/>
  </object>
  <object id="160" name="entry3" x="60" y="240">
   <point/>
  </object>
 </objectgroup>
</map>
